X:1
T:Counterpoint assignment 1
T:Counterpoint assignment 1
%%score { 1 | 2 }
L:1/8
M:4/4
K:C
V:1 treble nm="Piano" snm="Pno."
V:2 treble 
V:1
"^Ex. 1" z8 | z8 | z8 | z8 | z8 | z8 | z8 | z8 | z8 | z8 | z8 | z8 | z8 ||"^Ex. 2" z8 | z8 | z8 | %16
 z8 | z8 | z8 | z8 | z8 | z8 | z8 | z8 | z8 ||"^Ex. 3" z8 | z8 | z8 | z8 | z8 | z8 | z8 | z8 | z8 | %34
 z8 | z8 | z8 | z8 |] %38
V:2
 c8 | B8 | A8 | c8 | d8 | c8 | B8 | G8 | A8 | c8 | c8 | B8 | c8 || c8 | G8 | c8 | d8 | e8 | d8 | %19
 c8 | d8 | d8 | c8 | B8 | c8 || c8 | c8 | c8 | d8 | e8 | e8 | d8 | d8 | c8 | e8 | d8 | d8 | c8 |] %38

